assets/img/logo-text.svg

<svg fill="none" height="158" viewBox="0 0 251 158" width="251" xmlns="http://www.w3.org/2000/svg" xmlns:xlink="http://www.w3.org/1999/xlink"><filter id="a" color-interpolation-filters="sRGB" filterUnits="userSpaceOnUse" height="157.521" width="250.976" x="0" y="0"><feFlood flood-opacity="0" result="BackgroundImageFix"/><feColorMatrix in="SourceAlpha" result="hardAlpha" type="matrix" values="0 0 0 0 0 0 0 0 0 0 0 0 0 0 0 0 0 0 127 0"/><feOffset/><feGaussianBlur stdDeviation="12"/><feComposite in2="hardAlpha" operator="out"/><feColorMatrix type="matrix" values="0 0 0 0 0.592157 0 0 0 0 0.172549 0 0 0 0 0.788235 0 0 0 0.4 0"/><feBlend in2="BackgroundImageFix" mode="normal" result="effect1_dropShadow_38_33"/><feBlend in="SourceGraphic" in2="effect1_dropShadow_38_33" mode="normal" result="shape"/></filter><g filter="url(#a)"><path clip-rule="evenodd" d="m133.483 25.4675-1.613-1.4675h-79.304v3.7097l-3.5797-3.7097h-24.9863v51.7138h.0117v46.4072l6.4762 5.87 17.8745 5.53.2707-15.438c3.556-1.186 6.9237-2.994 10.0087-5.142l5.0161 4.543 14.7658 11.493s4.1331-10.46 5.5579-13.923l.8477-.176c.5181 4.238 1.0127 8.323 1.2835 10.624l.2355 1.926 6.4762 5.87 19.3105-6.927s-.259-1.561-.612-3.768l.424.387 16.096 2.266s-.153-8.23-.223-12.714c3.355 3.522 6.676 6.903 7.288 7.466l.024.024 6.476 5.87 10.021-2.806 3.756 3.404 17.297-4.825s-.023-1.467-.059-3.428l5.911 5.354c.036.035.047.058.059.058l21.101-3.768 4.945 4.484 17.003-2.277c.106-4.966-.388-8.124-.73-11.752l-.129-1.35.33-1.819c1.601-8.7819 4.792-28.7865 5.863-42.4986l-6.476-5.8699-2.649-.1291v-28.8095l-6.476-5.8699h-31.204v5.2829l-5.817-5.2829h-16.438v5.9286l-.011-.0587h-.059l-6.418-5.8699h-17.674z" fill="#972cc9" fill-rule="evenodd"/><path clip-rule="evenodd" d="m76.7282 103.431.3532 2.842 9.4319-1.937c1.307 10.554 2.2488 19.288 2.2842 19.088l13.5535-4.86c-.895-5.435-1.778-11.082-2.6852-16.952l5.6872-1.033-1.601-8.4999-5.452.634c-1.2482-8.2296-2.5435-16.8349-3.9329-25.7689l-14.3889 1.9841c-7.2062 12.3503-13.6237 26.3793-19.2874 41.6877l9.9615 7.749c1.9311-4.908 3.9093-9.85 6.0759-14.934zm-49.6077-32.3074-.1649.0233v48.8141l11.9869 3.71-.0236-19.981 2.2961 5.729c12.9995-4.321 23.2321-17.3987 26.0463-24.7126l-6.3585-17.1988zm125.5675.129c-.788 11.8925-1 32.5784-.871 45.5154l11.398-3.182c-.365-16.0949.106-29.3609 1.378-42.0986zm-16.708 45.4914 11.033-3.099c-.2-8.453.153-36.3462 2.143-49.5887l-11.645 1.3501c-1.284 12.0802-2.143 18.9714-2.367 30.6525l-.012.2818c-7.513-6.856-18.758-20.263-22.631-26.309l-10.41 5.7761c1.731 2.5475 3.686 5.318 5.888 8.2412-.306 10.695-.53 21.378.235 30.488l10.351 1.468c-.071-4.426-.307-15.015-.165-19.1126 3.073 4.6376 10.656 13.1136 17.58 19.8516zm65.28-12.185c-.071 3.345-.212 7.795-.188 10.589l11.115-1.479c-.023-2.689-.671-8.899-.671-8.899zm-11.975-40.7258c-10.998 9.8732-17.71 17.0344-22.019 25.4284l-.919 1.7843.283 1.9841c.777 5.2125 2.92 12.82 5.11 17.305l2.049 4.167 23.114-4.12-1.224-13.8301-14.283 4.0381c-.801-2.3945-1.484-5.0477-1.943-7.3839 3.768-6.4921 9.537-12.2094 18.263-20.0281zm13.023-3.0173c-1.072 13.7708-1.495 29.5961-1.048 39.6101 3.486.117 6.983.247 10.48.364 1.589-8.7227 4.133-25.5926 5.181-39.1991zm-162.9887 23.9845-.2355 11.1645c6.3702-2.5475 11.0331-5.5764 14.2948-10.1432l-.9068-2.43zm45.8868 9.4623c-.3297-2.4654-.6711-4.9071-1.0243-7.2551-1.2835 2.6532-2.508 5.2477-3.662 7.807z" fill="#c4fc36" fill-rule="evenodd"/><path d="m156.682 68.4-5.098-.094c.153-1.3736 1.06-7.6192 1.06-7.6192l-18.004 2.0662c-.365 3.4632-.707 6.7974-1.013 10.0258h-5.946l8.513-45.8439h12.788zm-101.17-3.2521v-38.213h10.5503v32.5779h4.2155v-32.5779h10.5503v38.9057l-2.6728.3756c-.3768.27-2.0254 3.1463-3.8505 6.5626h-8.3248l-3.1086-8.429zm52.54 4.0152v-42.2282h20.865v10.918h-10.315v6.5509h8.207v10.918h-8.207v17.457h-.129c-2.049-2.7471-3.745-5.1421-4.769-6.7387zm52.799-.681v-41.5472h10.55v32.5779h8.443v8.8636c-1.46 1.4792-2.85 2.9584-4.169 4.4024h-8.207c.212-2.4067.377-4.1559.377-4.1559zm47.582-10.2957-8.843-.4579s-.659 9.0513-.824 12.2211l-9.561-10.4719c-2.108 1.8902-4.145 3.7802-6.088 5.6585v-38.2013h25.316zm-181.4987 10.0492v-41.3007h20.7945l4.5334 4.6842v11.5284l-4.2273 4.3673 4.2273 4.3672v13.6181zm57.0025-2.8176v-38.4831h20.8652v10.918h-10.3149v6.5509h8.2069v10.918h-8.2069v8.6522zm-42.2249-5.9052v-4.5198l-1.1423-2.0191h-3.085v6.5389zm151.9561-21.6599v21.6599h4.215v-21.6599zm-49.126 19.6408-1.954-13.0899-1.955 13.0899zm-103.9724-15.4379 1.1423-1.9487v-4.6022h-4.2273v6.5509z" fill="#ffe"/></g></svg>

<svg width="251" height="158" viewBox="0 0 251 158" fill="none" xmlns="http://www.w3.org/2000/svg">
<g filter="url(#filter0_d_38_33)">
<path fill-rule="evenodd" clip-rule="evenodd" d="M133.483 25.4675L131.87 24H52.566V27.7097L48.9863 24H24V75.7138H24.0117V122.121L30.4879 127.991L48.3624 133.521L48.6331 118.083C52.1891 116.897 55.5568 115.089 58.6418 112.941L63.6579 117.484L78.4237 128.977C78.4237 128.977 82.5568 118.517 83.9816 115.054L84.8293 114.878C85.3474 119.116 85.842 123.201 86.1128 125.502L86.3483 127.428L92.8245 133.298L112.135 126.371C112.135 126.371 111.876 124.81 111.523 122.603L111.947 122.99L128.043 125.256C128.043 125.256 127.89 117.026 127.82 112.542C131.175 116.064 134.496 119.445 135.108 120.008L135.132 120.032L141.608 125.902L151.629 123.096L155.385 126.5L172.682 121.675C172.682 121.675 172.659 120.208 172.623 118.247L178.534 123.601C178.57 123.636 178.581 123.659 178.593 123.659L199.694 119.891L204.639 124.375L221.642 122.098C221.748 117.132 221.254 113.974 220.912 110.346L220.783 108.996L221.113 107.177C222.714 98.3951 225.905 78.3905 226.976 64.6784L220.5 58.8085L217.851 58.6794V29.8699L211.375 24H180.171V29.2829L174.354 24H157.916V29.9286L157.905 29.8699H157.846L151.428 24H133.754L133.483 25.4675Z" fill="#972CC9"/>
<path fill-rule="evenodd" clip-rule="evenodd" d="M76.7282 103.431L77.0814 106.273L86.5133 104.336C87.8203 114.89 88.7621 123.624 88.7975 123.424L102.351 118.564C101.456 113.129 100.573 107.482 99.6658 101.612L105.353 100.579L103.752 92.0791L98.3 92.7131C97.0518 84.4835 95.7565 75.8782 94.3671 66.9442L79.9782 68.9283C72.772 81.2786 66.3545 95.3076 60.6908 110.616L70.6523 118.365C72.5834 113.457 74.5616 108.515 76.7282 103.431ZM27.1205 71.1236L26.9556 71.1469V119.961L38.9425 123.671L38.9189 103.69L41.215 109.419C54.2145 105.098 64.4471 92.0203 67.2613 84.7064L60.9028 67.5076L27.1205 71.1236ZM152.688 71.2526C151.9 83.1451 151.688 103.831 151.817 116.768L163.215 113.586C162.85 97.4911 163.321 84.2251 164.593 71.4874L152.688 71.2526ZM135.98 116.744L147.013 113.645C146.813 105.192 147.166 77.2988 149.156 64.0563L137.511 65.4064C136.227 77.4866 135.368 84.3778 135.144 96.0589L135.132 96.3407C127.619 89.4847 116.374 76.0777 112.501 70.0317L102.091 75.8078C103.822 78.3553 105.777 81.1258 107.979 84.049C107.673 94.744 107.449 105.427 108.214 114.537L118.565 116.005C118.494 111.579 118.258 100.99 118.4 96.8924C121.473 101.53 129.056 110.006 135.98 116.744ZM201.26 104.559C201.189 107.904 201.048 112.354 201.072 115.148L212.187 113.669C212.164 110.98 211.516 104.77 211.516 104.77L201.26 104.559ZM189.285 63.8332C178.287 73.7064 171.575 80.8676 167.266 89.2616L166.347 91.0459L166.63 93.03C167.407 98.2425 169.55 105.85 171.74 110.335L173.789 114.502L196.903 110.382L195.679 96.5519L181.396 100.59C180.595 98.1955 179.912 95.5423 179.453 93.2061C183.221 86.714 188.99 80.9967 197.716 73.178L189.285 63.8332ZM202.308 60.8159C201.236 74.5867 200.813 90.412 201.26 100.426C204.746 100.543 208.243 100.673 211.74 100.79C213.329 92.0673 215.873 75.1974 216.921 61.5909L202.308 60.8159ZM39.3193 84.8004L39.0838 95.9649C45.454 93.4174 50.1169 90.3885 53.3786 85.8217L52.4718 83.3917L39.3193 84.8004ZM85.2061 94.2627C84.8764 91.7973 84.535 89.3556 84.1818 87.0076C82.8983 89.6608 81.6738 92.2553 80.5198 94.8146L85.2061 94.2627Z" fill="#C4FC36"/>
<path d="M156.682 68.4L151.584 68.306C151.737 66.9324 152.644 60.6868 152.644 60.6868L134.64 62.753C134.275 66.2162 133.933 69.5504 133.627 72.7788H127.681L136.194 26.9349H148.982L156.682 68.4ZM55.512 65.1479V26.9349H66.0623V59.5128H70.2778V26.9349H80.8281V65.8406L78.1553 66.2162C77.7785 66.4862 76.1299 69.3625 74.3048 72.7788H65.98L62.8714 64.3498L55.512 65.1479ZM108.052 69.1631V26.9349H128.917V37.8529H118.602V44.4038H126.809V55.3218H118.602V72.7788H118.473C116.424 70.0317 114.728 67.6367 113.704 66.0401L108.052 69.1631ZM160.851 68.4821V26.9349H171.401V59.5128H179.844V68.3764C178.384 69.8556 176.994 71.3348 175.675 72.7788H167.468C167.68 70.3721 167.845 68.6229 167.845 68.6229L160.851 68.4821ZM208.433 58.1864L199.59 57.7285C199.59 57.7285 198.931 66.7798 198.766 69.9496L189.205 59.4777C187.097 61.3679 185.06 63.2579 183.117 65.1362V26.9349H208.433V58.1864ZM26.9343 68.2356V26.9349H47.7288L52.2622 31.6191V43.1475L48.0349 47.5148L52.2622 51.882V65.5001L26.9343 68.2356ZM83.9368 65.418V26.9349H104.802V37.8529H94.4871V44.4038H102.694V55.3218H94.4871V63.974L83.9368 65.418ZM41.7119 59.5128V54.993L40.5696 52.9739H37.4846V59.5128H41.7119ZM193.668 37.8529V59.5128H197.883V37.8529H193.668ZM144.542 57.4937L142.588 44.4038L140.633 57.4937H144.542ZM40.5696 42.0558L41.7119 40.1071V35.5049H37.4846V42.0558H40.5696Z" fill="#FFFFEE"/>
</g>
<defs>
<filter id="filter0_d_38_33" x="0" y="0" width="250.976" height="157.521" filterUnits="userSpaceOnUse" color-interpolation-filters="sRGB">
<feFlood flood-opacity="0" result="BackgroundImageFix"/>
<feColorMatrix in="SourceAlpha" type="matrix" values="0 0 0 0 0 0 0 0 0 0 0 0 0 0 0 0 0 0 127 0" result="hardAlpha"/>
<feOffset/>
<feGaussianBlur stdDeviation="12"/>
<feComposite in2="hardAlpha" operator="out"/>
<feColorMatrix type="matrix" values="0 0 0 0 0.592157 0 0 0 0 0.172549 0 0 0 0 0.788235 0 0 0 0.4 0"/>
<feBlend mode="normal" in2="BackgroundImageFix" result="effect1_dropShadow_38_33"/>
<feBlend mode="normal" in="SourceGraphic" in2="effect1_dropShadow_38_33" result="shape"/>
</filter>
</defs>
</svg>
